public/avatar/shoe/1.svg

<svg xmlns:xlink="http://www.w3.org/1999/xlink" height="38.3" width="36.05" xmlns="http://www.w3.org/2000/svg"><use height="15.8" transform="translate(9.1 11.95)" width="22.75" xlink:href="#a"/><defs><use height="15.8" width="22.75" xlink:href="#b" id="a"/><g id="b"><path d="M-1.45-6.3q2.55-1.4 5.7-1.05 1.8.15 3.4 1l-2.9.85q-2.25.5-6.2-.8M-10.75 4q-.55-.95 1.1-2.95Q-6.6.4-3.9 1.6q3.05 1.35 2.35 3.75-4.9.6-8.4-.7l-.55-.3-.25-.35" fill="#004566" fill-rule="evenodd" transform="translate(11.4 7.9)"/><path d="M-1.45-6.3q3.95 1.3 6.2.8l2.9-.85L10.75.2l-1.6 1.75-.9.55Q6 3.65 2.1 4.65l-3.65.7q.7-2.4-2.35-3.75-2.7-1.2-5.75-.55L-8.8 0l2.95.1Q-4.4.3-3.3.95.5 3.15 3.25.7q.95-.95.8-2.1-.6-3.3-5.15-3.8l-2.25.1 1.9-1.2" fill="#69c" fill-rule="evenodd" transform="translate(11.4 7.9)"/><path d="M10.75.2q.2 1.9-.05 2.3l-.1.15Q8.75 4.9 2.2 6.55q-7.25 1.75-12.05 0l-.55-.3q-.35-.35-.35-2.25l.25.35.55.3q3.5 1.3 8.4.7l3.65-.7q3.9-1 6.15-2.15l.9-.55L10.75.2M-8.8 0l5.45-5.1 2.25-.1q4.55.5 5.15 3.8.15 1.15-.8 2.1Q.5 3.15-3.3.95-4.4.3-5.85.1L-8.8 0" fill="#fff" fill-rule="evenodd" transform="translate(11.4 7.9)"/><path d="M7.65-6.35q-1.6-.85-3.4-1Q1.1-7.7-1.45-6.3l-1.9 1.2L-8.8 0l-.85 1.05q-1.65 2-1.1 2.95 0 1.9.35 2.25l.55.3q4.8 1.75 12.05 0 6.55-1.65 8.4-3.9l.1-.15q.25-.4.05-2.3l-3.1-6.55Z" fill="none" stroke="#000" stroke-linecap="round" stroke-linejoin="round" transform="translate(11.4 7.9)"/></g></defs></svg>

<?xml version="1.0" encoding="UTF-8" standalone="no"?>
<svg xmlns:xlink="http://www.w3.org/1999/xlink" height="38.3px" width="36.05px" xmlns="http://www.w3.org/2000/svg">
  <g transform="matrix(1.0, 0.0, 0.0, 1.0, 23.8, 14.85)">
    <use height="15.8" transform="matrix(1.0, 0.0, 0.0, 1.0, -14.7, -2.9)" width="22.75" xlink:href="#sprite0"/>
  </g>
  <defs>
    <g id="sprite0" transform="matrix(1.0, 0.0, 0.0, 1.0, 11.4, 7.9)">
      <use height="15.8" transform="matrix(1.0, 0.0, 0.0, 1.0, -11.4, -7.9)" width="22.75" xlink:href="#shape0"/>
    </g>
    <g id="shape0" transform="matrix(1.0, 0.0, 0.0, 1.0, 11.4, 7.9)">
      <path d="M-1.45 -6.3 Q1.1 -7.7 4.25 -7.35 6.05 -7.2 7.65 -6.35 L4.75 -5.5 Q2.5 -5.0 -1.45 -6.3 M-10.75 4.0 Q-11.3 3.05 -9.65 1.05 -6.6 0.4 -3.9 1.6 -0.85 2.95 -1.55 5.35 -6.45 5.95 -9.95 4.65 L-10.5 4.35 -10.75 4.0" fill="#004566" fill-rule="evenodd" stroke="none"/>
      <path d="M-1.45 -6.3 Q2.5 -5.0 4.75 -5.5 L7.65 -6.35 10.75 0.2 9.15 1.95 8.25 2.5 Q6.0 3.65 2.1 4.65 L-1.55 5.35 Q-0.85 2.95 -3.9 1.6 -6.6 0.4 -9.65 1.05 L-8.8 0.0 -5.85 0.1 Q-4.4 0.3 -3.3 0.95 0.5 3.15 3.25 0.7 4.2 -0.25 4.05 -1.4 3.45 -4.7 -1.1 -5.2 L-3.35 -5.1 -1.45 -6.3" fill="#6699cc" fill-rule="evenodd" stroke="none"/>
      <path d="M10.75 0.2 Q10.95 2.1 10.7 2.5 L10.6 2.65 Q8.75 4.9 2.2 6.55 -5.05 8.3 -9.85 6.55 L-10.4 6.25 Q-10.75 5.9 -10.75 4.0 L-10.5 4.35 -9.95 4.65 Q-6.45 5.95 -1.55 5.35 L2.1 4.65 Q6.0 3.65 8.25 2.5 L9.15 1.95 10.75 0.2 M-8.8 0.0 L-3.35 -5.1 -1.1 -5.2 Q3.45 -4.7 4.05 -1.4 4.2 -0.25 3.25 0.7 0.5 3.15 -3.3 0.95 -4.4 0.3 -5.85 0.1 L-8.8 0.0" fill="#ffffff" fill-rule="evenodd" stroke="none"/>
      <path d="M7.65 -6.35 Q6.05 -7.2 4.25 -7.35 1.1 -7.7 -1.45 -6.3 L-3.35 -5.1 -8.8 0.0 -9.65 1.05 Q-11.3 3.05 -10.75 4.0 -10.75 5.9 -10.4 6.25 L-9.85 6.55 Q-5.05 8.3 2.2 6.55 8.75 4.9 10.6 2.65 L10.7 2.5 Q10.95 2.1 10.75 0.2 L7.65 -6.35 Z" fill="none" stroke="#000000" stroke-linecap="round" stroke-linejoin="round" stroke-width="1.0"/>
    </g>
  </defs>
</svg>
